X:860
T:Fyrtur efter Enninger
T:(SvL Skåne nr. 519)
S:John Enninger
R:Fyrtur
Z:Patrik Månsson, 2008-12-28
O:Höör, Skåne
B:Svenska Låtar Skåne nr 519
N:Melodien spelades av Anders Persson i Båhus, Färingtofta. (J.E.) 
M:2/4
L:1/16
Q:1/4=100
K:D
|: "D"d2fd A2d2 | "A7"cege "D"d2fa | "D"d2fd A2d2 | "A7"cege "D"d2 z2 :|
|: "D"dfa2 afdf | "A7"g2e2 "D"efd2 | "D"dfa2 afdf | "A7"egec "D"d2 z2 :|
(:musicend:)

Melodien spelades av Anders Persson i Båhus, Färingtofta. (J.E.)

Låten är från en gammal notbok funnen i Bohuslän. Axel Martin Broberg var snickare i Åmål. Han levde mellan 1841 och 1915.

(:music:)
